skin/frontend/rwd/default/images/operator.svg

<?xml version="1.0" encoding="UTF-8" standalone="no"?>
<!-- Generator: Adobe Illustrator 19.0.0, SVG Export Plug-In . SVG Version: 6.00 Build 0)  -->
<svg id="Layer_1" style="enable-background:new 0 0 512 512" xmlns="http://www.w3.org/2000/svg" xml:space="preserve" viewBox="0 0 512 512" height="512px" width="512px" version="1.1" y="0px" x="0px" xmlns:xlink="http://www.w3.org/1999/xlink">
<g transform="translate(0 1)">
		<path d="m486.4 423.96c-50.93-27.008-89.996-42.152-124.77-47.958l3.599-4.948c1.707-1.707 2.56-4.267 1.707-6.827l-7.997-31.987c2.898-4.097 5.632-8.333 8.193-12.688 31.8-10.823 47.881-29.118 50.583-56.054 13.968-0.728 26.02-13.195 26.02-27.271v-64c0-14.012-11.147-26.429-25.75-27.26-1.88-49.289-23.61-145.96-161.98-145.96s-160.1 96.675-161.98 145.97c-13.853 0.818-25.749 12.449-25.749 27.256v64c0 14.507 12.8 27.307 28.16 27.307h12.8c4.704 0 9.225-1.352 13.163-3.666 4.839 25.685 15.518 50.948 30.674 72.372l-7.997 31.987c0 1.707 0 4.267 1.707 6.827l3.599 4.948c-34.776 5.807-73.842 20.95-124.77 47.958-16.213 7.67-25.6 23.88-25.6 41.8v36.693c0 5.13 3.413 8.54 8.533 8.54h494.93c5.12 0 8.533-3.413 8.533-8.533v-36.693c0.01-17.07-10.23-33.29-25.59-41.82zm-230.35-19.52l20.433 46.826h-41.245l20.81-46.83zm-27.01 63.89h53.897l4.995 25.6h-64.013l5.11-25.6zm116.56-119.46l3.413 15.36-8.717 11.969c-0.556 0.455-1.071 1.006-1.523 1.684l-35.495 49.147-11.262 15.464-23.005-51.761c28.058-3.422 53.044-17.722 73.077-38.212 1.17-1.2 2.34-2.41 3.5-3.65zm33.32-53.09c4.813-11.711 8.441-23.884 10.735-36.154 3.249 1.968 6.948 3.283 10.936 3.729-1.49 12.06-6.85 23.45-21.68 32.42zm46.89-124.41v64c0 5.12-4.267 10.24-10.24 10.24h-12.8c-5.12 0-10.24-4.267-10.24-10.24v-63.997c0-5.12 4.267-10.24 10.24-10.24h12.8c5.12 0 10.24 4.27 10.24 10.24zm-169.81-155.3c52.597 0 141.12 17.17 144.92 128.99-3.576 0.367-7.001 1.454-10.099 3.124-10.38-64.978-67.03-115.05-134.82-115.05-67.778 0-124.43 50.055-134.82 115.02-3.052-1.648-6.46-2.737-10.104-3.099 3.8-111.81 92.32-128.98 144.92-128.98zm-137.39 219.3c0 5.12-4.267 10.24-10.24 10.24h-12.8c-5.12 0-10.24-4.267-10.24-10.24v-64c0-5.12 4.267-10.24 10.24-10.24h12.8c5.12 0 10.24 4.267 10.24 10.24v64zm17.92-65.7c0-65.71 53.76-119.47 119.47-119.47s119.47 53.76 119.47 119.47v59.73c0 28.232-7.35 54.079-19.266 75.887-20.368 5.908-49.669 9.446-91.667 9.446-5.12 0-8.533 3.413-8.533 8.533s3.413 8.533 8.533 8.533c30.745 0 56.458-1.888 77.515-5.835l-1.569 1.569c-4.293 5.724-8.824 10.943-13.558 15.649-20.093 18.719-44.058 30.058-67.152 31.181-1.162-0.499-2.465-0.75-3.77-0.75-1.312 0-2.494 0.257-3.554 0.761-14.136-0.648-28.603-5.129-42.316-12.793-13.893-7.982-26.962-19.489-38.61-34.048l-2.56-2.56-0.498-0.166c-19.164-25.134-31.929-58.199-31.929-95.407v-59.72zm106.46 221.06l-23.005 51.761-11.262-15.464-35.495-49.147c-0.272-0.272-0.572-0.541-0.884-0.806l-9.356-12.847 3.413-15.36c1.155 1.244 2.327 2.456 3.509 3.649 20.04 20.5 45.03 34.8 73.09 38.22zm-225.92 75.04c0-11.093 5.973-21.333 16.213-26.453 54.393-28.896 93.548-43.399 128.43-47.731l50.922 70.018-6.465 32.326h-189.09v-28.17zm477.86 28.16h-189.09l-6.465-32.326 51.474-70.777c34.757 5.245 74.615 19.737 127.88 47.636 10.24 5.973 16.213 16.213 16.213 27.307v28.16z" fill="#484a4b"/>
</g>
</svg>

<?xml version="1.0" encoding="iso-8859-1"?>
<!-- Generator: Adobe Illustrator 19.0.0, SVG Export Plug-In . SVG Version: 6.00 Build 0)  -->
<svg xmlns="http://www.w3.org/2000/svg" xmlns:xlink="http://www.w3.org/1999/xlink" version="1.1" id="Layer_1" x="0px" y="0px" viewBox="0 0 512 512" style="enable-background:new 0 0 512 512;" xml:space="preserve" width="512px" height="512px">
<g transform="translate(0 1)">
	<g>
		<path d="M486.4,423.96c-50.93-27.008-89.996-42.152-124.772-47.958l3.599-4.948c1.707-1.707,2.56-4.267,1.707-6.827l-7.997-31.987    c2.898-4.097,5.632-8.333,8.193-12.688c31.8-10.823,47.881-29.118,50.583-56.054c13.968-0.728,26.02-13.195,26.02-27.271v-64    c0-14.012-11.147-26.429-25.75-27.26C416.104,95.671,394.368-1,256-1C117.629-1,95.895,95.675,94.016,144.97    c-13.853,0.818-25.749,12.449-25.749,27.256v64c0,14.507,12.8,27.307,28.16,27.307h12.8c4.704,0,9.225-1.352,13.163-3.666    c4.839,25.685,15.518,50.948,30.674,72.372l-7.997,31.987c0,1.707,0,4.267,1.707,6.827l3.599,4.948    c-34.776,5.807-73.842,20.95-124.772,47.958C9.387,431.64,0,447.853,0,465.773v36.693C0,507.587,3.413,511,8.533,511h204.8h3.413    h78.507h3.413h204.8c5.12,0,8.533-3.413,8.533-8.533v-36.693C512,448.707,501.76,432.493,486.4,423.96z M256.047,404.441    l20.433,46.826h-41.245L256.047,404.441z M229.035,468.333h53.897l4.995,25.6h-64.013L229.035,468.333z M345.6,348.867    l3.413,15.36l-8.717,11.969c-0.556,0.455-1.071,1.006-1.523,1.684l-35.495,49.147l-11.262,15.464l-23.005-51.761    c28.058-3.422,53.044-17.722,73.077-38.212C343.272,351.324,344.444,350.111,345.6,348.867z M378.921,295.784    c4.813-11.711,8.441-23.884,10.735-36.154c3.249,1.968,6.948,3.283,10.936,3.729C399.113,275.421,393.754,286.809,378.921,295.784    z M425.813,171.373v64c0,5.12-4.267,10.24-10.24,10.24h-12.8c-5.12,0-10.24-4.267-10.24-10.24V229.4v-58.027    c0-5.12,4.267-10.24,10.24-10.24h12.8C420.693,161.133,425.813,165.4,425.813,171.373z M256,16.067    c52.597,0,141.118,17.17,144.924,128.992c-3.576,0.367-7.001,1.454-10.099,3.124C380.441,83.202,323.787,33.133,256,33.133    c-67.778,0-124.426,50.055-134.821,115.022c-3.052-1.648-6.46-2.737-10.104-3.099C114.883,33.237,203.404,16.067,256,16.067z     M118.613,235.373c0,5.12-4.267,10.24-10.24,10.24h-12.8c-5.12,0-10.24-4.267-10.24-10.24v-64c0-5.12,4.267-10.24,10.24-10.24    h12.8c5.12,0,10.24,4.267,10.24,10.24V235.373z M136.533,169.667C136.533,103.96,190.293,50.2,256,50.2    s119.467,53.76,119.467,119.467V229.4c0,28.232-7.35,54.079-19.266,75.887c-20.368,5.908-49.669,9.446-91.667,9.446    c-5.12,0-8.533,3.413-8.533,8.533s3.413,8.533,8.533,8.533c30.745,0,56.458-1.888,77.515-5.835    c-0.523,0.523-1.046,1.046-1.569,1.569c-4.293,5.724-8.824,10.943-13.558,15.649c-20.093,18.719-44.058,30.058-67.152,31.181    c-1.162-0.499-2.465-0.75-3.77-0.75c-1.312,0-2.494,0.257-3.554,0.761c-14.136-0.648-28.603-5.129-42.316-12.793    c-13.893-7.982-26.962-19.489-38.61-34.048c-0.853-0.853-1.707-1.707-2.56-2.56l-0.498-0.166    c-19.164-25.134-31.929-58.199-31.929-95.407V169.667z M242.988,390.73l-23.005,51.761l-11.262-15.464l-35.495-49.147    c-0.272-0.272-0.572-0.541-0.884-0.806l-9.356-12.847l3.413-15.36c1.155,1.244,2.327,2.456,3.509,3.649    C189.942,373.006,214.93,387.307,242.988,390.73z M17.067,465.773c0-11.093,5.973-21.333,16.213-26.453    c54.393-28.896,93.548-43.399,128.428-47.731l50.922,70.018l-6.465,32.326H17.067V465.773z M494.933,493.933H305.835    l-6.465-32.326l51.474-70.777c34.757,5.245,74.615,19.737,127.877,47.636c10.24,5.973,16.213,16.213,16.213,27.307V493.933z" fill="#484a4b"/>
	</g>
</g>
<g>
</g>
<g>
</g>
<g>
</g>
<g>
</g>
<g>
</g>
<g>
</g>
<g>
</g>
<g>
</g>
<g>
</g>
<g>
</g>
<g>
</g>
<g>
</g>
<g>
</g>
<g>
</g>
<g>
</g>
</svg>
